X:1
T:Title
%%score { 1 | 2 }
L:1/8
Q:1/4=100
M:2/4
K:A
V:1 treble nm="Grand Piano"
V:2 bass 
V:1
 [CA]2 [CG]>[CF] | [DG]2 [DG]2 | [DF]2 [CE]>[=C^D] | [CE]4 | E2 F>G | [EA]2 [EA]2 | %6
w: S.~G.~Cole * *||||||
 [^DA]2 [DG]>[DA] | [EB]4 | [Fd]2 [Ec]>[EB] | [Ec]2 [EA]2 | B2 AG | A4 | %12
w: ||||||
 F4[Q:1/4=99][Q:1/4=97][Q:1/4=96][Q:1/4=94][Q:1/4=93] | %13
w: |
 E2 E2[Q:1/4=91][Q:1/4=90][Q:1/4=88][Q:1/4=87][Q:1/4=85][Q:1/4=84][Q:1/4=82][Q:1/4=81][Q:1/4=79][Q:1/4=78][Q:1/4=76] | %14
w: |
 [CE]4- | [CE]2 z2 |] %16
w: ||
V:2
 [A,,E,]2 [A,,E,]>[A,,E,] | [B,,E,]2 [B,,E,]2 | [E,G,]2 [E,A,]>[A,,A,] | [A,,A,]4 | %4
 [E,G,B,]2 [E,A,C]>[D,B,D] | [C,A,]2 [C,A,]2 | [B,,F,]2 [B,,B,]>[B,,A,] | [E,G,]4 | %8
 [E,G,]2 [E,G,]>[E,G,] | [A,,A,]2 [C,A,]2 | [E,G,D]2 [E,A,C][E,B,D] | [F,A,C]4 | [D,A,D]4 | %13
 [E,A,C]2 [E,G,D]2 | [A,,A,]4- | [A,,A,]2 z2 |] %16

